icons/commit-24.svg

<svg width="24" height="24" viewBox="0 0 24 24" xmlns="http://www.w3.org/2000/svg">
  <path fill-rule="evenodd" clip-rule="evenodd" d="M17.5 11.75C17.5 11.3358 17.8358 11 18.25 11H23.25C23.6642 11 24 11.3358 24 11.75C24 12.1642 23.6642 12.5 23.25 12.5H18.25C17.8358 12.5 17.5 12.1642 17.5 11.75Z"/>
  <path fill-rule="evenodd" clip-rule="evenodd" d="M0 11.75C0 11.3358 0.335786 11 0.75 11H5.75C6.16421 11 6.5 11.3358 6.5 11.75C6.5 12.1642 6.16421 12.5 5.75 12.5H0.75C0.335786 12.5 0 12.1642 0 11.75Z"/>
  <path fill-rule="evenodd" clip-rule="evenodd" d="M12 16.25C14.4853 16.25 16.5 14.2353 16.5 11.75C16.5 9.26472 14.4853 7.25 12 7.25C9.51472 7.25 7.5 9.26472 7.5 11.75C7.5 14.2353 9.51472 16.25 12 16.25ZM12 17.75C15.3137 17.75 18 15.0637 18 11.75C18 8.43629 15.3137 5.75 12 5.75C8.68629 5.75 6 8.43629 6 11.75C6 15.0637 8.68629 17.75 12 17.75Z"/>
</svg>

<svg xmlns="http://www.w3.org/2000/svg" width="24" height="24" viewBox="0 0 24 24"><path fill-rule="evenodd" d="M17.5 11.75a.75.75 0 01.75-.75h5a.75.75 0 010 1.5h-5a.75.75 0 01-.75-.75zm-17.5 0A.75.75 0 01.75 11h5a.75.75 0 010 1.5h-5a.75.75 0 01-.75-.75z"/><path fill-rule="evenodd" d="M12 16.25a4.5 4.5 0 100-9 4.5 4.5 0 000 9zm0 1.5a6 6 0 100-12 6 6 0 000 12z"/></svg>
